X:0774
T:Miss J. Somervell's Favourite Strathspey.
M:C|
L:1/8
Q:1/4=120
I: :| 1 || 2 ||
Z:Jack Campin * www.campin.me.uk * 2009
K:G
G<GG>B  A>GA<B|G<GG>B d>eg2|   G<GG>B  A>GAB |e>dB<e ef g2 :|
de/f/ge a>gf<d|e>fg<e af g2|[1 de/f/ge a>gf<d|e>dB<d e<fg2 :|
                            [2 de/f/gb a>gf>d|e>dB<d e<fg<b|]
<end>
<start>
